packages/nodes-base/nodes/Mailchimp/mailchimp.svg

<?xml version="1.0" encoding="UTF-8"?>
<svg width="60px" height="60px" viewBox="0 0 60 60" version="1.1" xmlns="http://www.w3.org/2000/svg" xmlns:xlink="http://www.w3.org/1999/xlink">
    <title>mailchimp_node_icon</title>
    <g id="mailchimp_node_icon" stroke="none" stroke-width="1" fill="none" fill-rule="evenodd">
        <g id="iconfinder_78-mailchimp_1929181" transform="translate(2.000000, 0.000000)" fill="#000000" fill-rule="nonzero">
            <path d="M56.7978989,39.1146881 C56.4387361,38.2696177 55.6006897,37.665996 54.6429223,37.4245473 C54.2837595,35.8551308 53.8048758,35.1307847 53.8048758,35.0100604 C53.9245967,34.7686117 54.1640386,34.6478873 54.1640386,34.527163 C55.6006897,32.8370221 54.6429223,30.3018109 52.2485038,29.6981891 C50.9315737,28.3702213 49.7343644,27.7665996 48.6568761,27.2837022 C47.6991087,26.8008048 48.0582715,27.0422535 47.2202251,26.5593561 C46.9807832,25.3521127 46.8610623,22.6961771 46.5018995,20.7645875 C46.1427368,19.0744467 45.4244112,17.7464789 44.4666438,17.0221328 C43.9877601,16.056338 43.5088764,15.2112676 42.7905509,14.4869215 C46.1427368,9.41649899 46.9807832,4.34607646 44.5863648,1.69014085 C43.5088764,0.482897384 41.9525045,0 40.0369697,0 C37.2833885,0 34.0509235,1.08651911 30.6987377,3.138833 C30.6987377,3.138833 28.5437611,1.32796781 28.4240402,1.32796781 C19.0858082,-6.0362173 -7.37251578,26.6800805 1.9657162,33.8028169 L4.36013466,35.6136821 C2.80376266,39.8390342 4.95873928,44.9094567 9.38841342,46.4788732 C10.3461808,46.8410463 11.4236691,46.9617706 12.5011574,46.9617706 C12.5011574,46.9617706 19.5646919,60 34.5298072,60 C51.7696201,60 56.1992943,42.9778672 56.1992943,42.8571429 C56.0795734,42.9778672 57.5162244,40.804829 56.7978989,39.1146881 Z M2.56432082,31.6297787 C0.768506975,28.3702213 4.00097189,21.8511066 6.39539035,17.9879276 C12.1419947,8.69215292 21.8393894,1.32796781 26.2690636,2.41448692 L27.4662728,1.93158954 C27.4662728,1.93158954 30.6987377,4.7082495 30.8184586,4.7082495 C33.0931562,3.38028169 35.9664583,1.93158954 38.6003186,1.69014085 C36.9242257,2.05231388 35.0086909,2.89738431 32.6142725,4.34607646 C32.6142725,4.34607646 26.9873891,8.20925553 23.6352032,11.5895372 C21.8393894,13.4004024 14.4166922,22.4547284 14.4166922,22.334004 C15.7336223,19.7987928 16.6913897,18.4708249 18.8463663,15.8148893 C20.0435756,14.2454728 21.3605057,12.7967807 22.6774359,11.3480885 C23.2760405,10.7444668 23.8746451,10.1408451 24.5929706,9.53722334 C25.0718543,9.1750503 25.4310171,8.69215292 25.9099008,8.32997988 C26.1493426,8.20925553 26.2690636,7.96780684 26.5085054,7.84708249 C26.5085054,7.84708249 26.5085054,7.84708249 26.5085054,7.84708249 L22.1985522,4.22535211 L22.437994,5.79476861 L25.550738,8.57142857 C25.550738,8.57142857 22.7971568,10.5030181 21.3605057,11.7102616 C15.7336223,16.5392354 10.3461808,23.9034205 8.31092512,31.0261569 L8.43064604,31.0261569 C7.47287866,31.6297787 6.39539035,32.4748491 5.55734389,33.6820926 C5.19818112,33.8028169 2.92348359,32.2334004 2.56432082,31.6297787 Z M11.7828319,45.0301811 C8.43064604,45.0301811 5.79678574,42.1327968 5.79678574,38.6317907 C5.79678574,35.1307847 8.55036696,32.2334004 11.7828319,32.2334004 C12.6208783,32.2334004 13.4589248,32.4748491 14.1772503,32.7162978 C14.1772503,32.7162978 15.4941805,33.3199195 15.8533433,36.4587525 C15.8533433,36.4587525 15.8533433,36.4587525 15.8533433,36.4587525 C15.8533433,36.4587525 15.8533433,36.4587525 15.8533433,36.4587525 C16.212506,35.4929577 16.4519479,34.6478873 16.4519479,34.6478873 C16.9308316,35.9758551 17.0505525,37.4245473 17.0505525,38.7525151 L17.0505525,38.7525151 L17.0505525,38.7525151 C17.4097153,38.2696177 17.768878,37.4245473 17.768878,37.4245473 C18.4872036,41.5291751 15.6139014,45.0301811 11.7828319,45.0301811 Z M19.2055291,22.4547284 L19.2055291,22.4547284 C19.2055291,22.4547284 21.8393894,17.5050302 27.4662728,14.1247485 C26.9873891,14.0040241 26.0296217,14.2454728 25.7901799,14.2454728 C26.8676682,13.4004024 28.7832029,12.7967807 30.1001331,12.4346076 C29.7409703,12.193159 28.7832029,12.0724346 28.3043192,12.0724346 C28.1845983,12.0724346 28.1845983,12.0724346 28.0648774,12.0724346 C29.2620866,11.3480885 31.6565051,10.9859155 33.6917608,11.3480885 C33.4523189,10.9859155 32.8537143,10.7444668 32.3748306,10.6237425 C32.3748306,10.6237425 32.1353888,10.6237425 32.1353888,10.6237425 C32.1353888,10.6237425 32.2551097,10.6237425 32.2551097,10.6237425 C33.5720398,10.3822938 35.0086909,10.6237425 36.2059002,11.1066398 C36.0861792,10.7444668 35.7270165,10.3822938 35.4875746,10.1408451 C35.4875746,10.1408451 35.3678537,10.0201207 35.3678537,10.0201207 C36.5650629,10.2615694 37.7622721,10.8651911 38.7200395,11.4688129 C38.6003186,11.2273642 38.3608768,10.8651911 38.1214349,10.6237425 C39.3186441,10.9859155 40.6355743,11.8309859 41.2341789,13.0382294 L41.2341789,13.0382294 C41.2341789,13.0382294 41.2341789,13.1589537 41.2341789,13.1589537 C41.2341789,13.1589537 41.2341789,13.1589537 41.2341789,13.1589537 C38.9594814,11.4688129 32.4945515,11.9517103 26.0296217,16.1770624 C23.1563196,18.1086519 20.881622,20.1609658 19.2055291,22.4547284 Z M54.4034804,42.1327968 C54.2837595,42.2535211 53.565434,46.7203219 48.7765971,50.4627767 C42.9102718,55.1710262 35.1284118,54.6881288 32.1353888,52.0321932 C30.5790168,50.583501 29.8606912,48.4104628 29.8606912,48.4104628 C29.8606912,48.4104628 29.7409703,49.6177062 29.6212494,50.1006036 C28.4240402,48.0482897 28.5437611,45.6338028 28.5437611,45.6338028 C28.5437611,45.6338028 27.9451565,46.8410463 27.5859937,47.444668 C26.7479472,45.1509054 27.10711,42.8571429 27.10711,42.8571429 L26.3887845,43.943662 C26.3887845,43.943662 26.0296217,41.4084507 26.8676682,39.3561368 C27.7057146,37.0623742 29.3818075,35.4929577 29.7409703,35.2515091 C28.5437611,34.889336 27.10711,33.6820926 27.10711,33.6820926 C27.10711,33.6820926 27.7057146,33.6820926 28.0648774,33.6820926 C28.0648774,33.6820926 25.550738,31.8712274 25.0718543,29.0945674 C25.4310171,29.5774648 26.1493426,30.0603622 26.1493426,30.0603622 C25.9099008,29.3360161 25.7901799,27.7665996 26.0296217,26.0764588 L26.0296217,26.0764588 C26.5085054,23.0583501 29.0226448,21.0060362 31.776226,21.0060362 C34.7692491,21.0060362 36.8045048,21.6096579 39.3186441,19.3158954 C39.7975278,18.832998 40.2764115,18.3501006 40.9947371,18.2293763 C41.114458,18.2293763 41.2341789,18.1086519 41.7130626,18.1086519 C42.0722254,18.1086519 42.5511091,18.2293763 42.9102718,18.4708249 C44.227202,19.3158954 44.5863648,21.4889336 44.7060857,23.0583501 C45.3046903,28.8531187 45.0652484,27.8873239 47.339946,29.0945674 C48.4174343,29.6981891 49.7343644,30.1810865 51.1710155,31.750503 C51.1710155,31.750503 51.1710155,31.750503 51.1710155,31.750503 C51.1710155,31.750503 51.1710155,31.750503 51.1710155,31.750503 C52.3682247,31.750503 52.9668294,32.7162978 52.4879457,33.4406439 C48.4174343,38.2696177 42.7905509,40.5633803 36.5650629,40.804829 C36.3256211,40.804829 35.7270165,40.804829 35.7270165,40.804829 C33.2128771,40.9255533 32.3748306,44.1851107 33.9312026,46.1167002 C34.88897,47.3239437 36.9242257,47.806841 38.4805977,47.806841 L38.4805977,47.806841 C45.3046903,47.9275654 52.2485038,43.0985915 53.445713,40.3219316 C53.445713,40.3219316 53.565434,40.0804829 53.565434,40.0804829 C53.3259921,40.4426559 46.6216204,46.7203219 38.4805977,46.4788732 C38.4805977,46.4788732 37.6425512,46.4788732 36.8045048,46.2374245 C35.7270165,45.9959759 34.88897,45.5130785 34.5298072,44.4265594 C35.2481328,44.5472837 36.0861792,44.668008 37.0439466,44.668008 C42.9102718,44.668008 47.1005041,42.0120724 46.7413414,41.8913481 C46.7413414,41.8913481 46.7413414,41.8913481 46.6216204,41.8913481 C45.9032949,42.0120724 38.8397605,44.7887324 34.4100863,43.3400402 C34.4100863,43.2193159 34.4100863,43.0985915 34.5298072,42.9778672 C34.88897,41.6498994 35.6072955,41.7706237 36.8045048,41.7706237 L36.8045048,41.7706237 C40.8750161,41.6498994 44.1074811,40.5633803 46.6216204,39.4768612 C49.2554807,38.2696177 51.2907364,36.5794769 52.009062,35.7344064 C52.9668294,37.3038229 52.9668294,39.3561368 52.9668294,39.3561368 C52.9668294,39.3561368 53.3259921,39.2354125 53.8048758,39.2354125 C55.2415269,39.3561368 55.4809687,40.6841046 54.4034804,42.1327968 Z" id="Shape"></path>
            <polygon id="Path" points="25.25 4.8 25.95 5 25.35 3 25.05 4"></polygon>
            <path d="M30,5.28571429 L29,4 L29.3636364,6 C29.5454545,5.71428571 29.7272727,5.57142857 30,5.28571429 Z" id="Path"></path>
            <path d="M42.2222222,26.668878 C42.8888889,26.668878 43.4444444,26.779252 44,27 C44,25.4547642 43.1111111,23.7991543 42.4444444,24.0199023 L42.4444444,24.0199023 C42.4444444,24.0199023 42.4444444,24.0199023 42.4444444,24.0199023 L42.4444444,24.0199023 C42,24.1302763 42,24.7925202 42,25.2340162 C42,25.7858861 42,26.2273821 42.2222222,26.668878 Z" id="Path"></path>
            <path d="M28,7.53846154 L25,7 L26.9565217,8 C27.3478261,7.84615385 27.6086957,7.69230769 28,7.53846154 Z" id="Path"></path>
            <path d="M34.9387187,29.5 C35.6020195,29.75 36,29.875 36,29.75 C36,29.75 36,29.5 35.8673398,29.375 C35.4693594,28.875 34.8060586,28.375 34.1427578,28.25 C32.683496,27.75 30.9589139,28 29.7649725,29 C29.1016717,29.5 28.8363513,30 29.1016717,30 C29.2343318,30 29.6323123,29.875 30.1629529,29.75 C32.2855155,28.875 33.3467968,28.875 34.9387187,29.5 Z" id="Path"></path>
            <path d="M35.5145862,31.581392 C35.800418,31.581392 35.9909725,31.581392 35.9909725,31.581392 C36.0862497,31.3917283 35.419309,30.9175692 34.3712592,31.012401 C34.275982,31.012401 34.1807047,31.1072328 33.9901502,31.1072328 C33.9901502,31.1072328 33.894873,31.1072328 33.894873,31.1072328 C33.7043185,31.2020647 33.4184867,31.2968965 33.2279322,31.4865602 C33.0373777,31.6762239 32.9421005,31.8658875 33.0373777,31.9607194 C33.132655,32.0555512 33.2279322,31.9607194 33.513764,31.8658875 C34.3712592,31.581392 34.9429227,31.581392 35.5145862,31.581392 Z" id="Path"></path>
            <path d="M13.1504621,36.5616053 C13.5145498,37.0893846 13.3931872,37.3532743 13.5145498,37.4852192 C13.5145498,37.4852192 13.6359123,37.617164 13.7572749,37.4852192 C14,37.3532743 14,37.0893846 14,36.825495 L14,36.825495 C14,36.825495 14,36.825495 14,36.825495 L14,36.825495 C14,36.2977156 13.7572749,35.6379914 13.3931872,35.2421569 C13.3931872,35.2421569 13.3931872,35.2421569 13.3931872,35.2421569 L13.3931872,35.2421569 C12.9077369,34.7143775 12.3009241,34.1865982 11.4513862,34.0546533 C10.7232108,33.9227085 9.99503548,34.0546533 9.87367292,34.1865982 L9.87367292,34.1865982 C9.75231035,34.1865982 9.63094779,34.1865982 9.50958523,34.318543 C7.56778425,35.1102121 6.71824632,37.2213295 7.08233401,39.2005021 C7.20369657,39.7282814 7.44642169,40.2560608 7.68914681,40.6518953 L7.68914681,40.6518953 C7.68914681,40.6518953 7.68914681,40.6518953 7.68914681,40.6518953 L7.68914681,40.6518953 C8.0532345,41.1796747 8.53868474,41.0477298 8.29595962,40.6518953 C8.29595962,40.5199505 8.0532345,39.9921711 7.93187193,39.2005021 C7.93187193,38.2768882 8.0532345,37.3532743 8.6600473,36.5616053 C9.02413499,36.0338259 9.50958523,35.7699363 9.63094779,35.7699363 L9.63094779,35.7699363 C9.75231035,35.7699363 9.75231035,35.6379914 9.87367292,35.6379914 C9.87367292,35.6379914 9.99503548,35.6379914 9.99503548,35.6379914 C10.2377606,35.5060466 10.116398,35.6379914 10.3591232,35.5060466 L10.3591232,35.5060466 C11.8154739,35.2421569 12.7863744,35.9018811 13.1504621,36.5616053 Z" id="Path"></path>
            <path d="M13.2809235,38.0388209 C13.1755065,37.9349388 13.0700895,37.8310568 13.0700895,37.7271747 C13.0700895,37.5194105 13.0700895,37.4155284 13.2809235,37.3116463 C13.3863404,37.2077642 13.4917574,37.2077642 13.4917574,37.1038821 C13.4917574,37 13.0700895,36.8961179 12.6484215,37.2077642 C12.3321705,37.5194105 12.3321705,38.142703 12.7538385,38.5582314 C13.2809235,39.0776419 14.0188424,39.181524 14.1242594,39.8048165 C14.1242594,39.9086986 14.1242594,40.0125807 14.1242594,40.1164628 C14.1242594,40.2203449 14.1242594,40.4281091 14.1242594,40.4281091 C14.0188424,41.0514017 13.3863404,41.6746942 12.3321705,41.4669301 C12.1213366,41.4669301 12.0159196,41.4669301 12.0159196,41.4669301 C11.9105026,41.5708122 12.3321705,42.0902226 13.1755065,41.9863405 C14.3350934,41.9863405 15.1784293,40.8436375 14.9675953,39.5970524 C14.8621783,38.5582314 13.7025914,38.3504672 13.2809235,38.0388209 Z" id="Path"></path>
            <ellipse id="Oval" transform="translate(43.659875, 29.980543) rotate(-81.135792) translate(-43.659875, -29.980543) " cx="43.6598748" cy="29.9805433" rx="1" ry="1"></ellipse>
            <ellipse id="Oval" transform="translate(40.817460, 30.926949) rotate(-61.277058) translate(-40.817460, -30.926949) " cx="40.8174602" cy="30.9269493" rx="1" ry="1"></ellipse>
        </g>
    </g>
</svg>

<svg width="60" height="60" xmlns="http://www.w3.org/2000/svg"><g transform="translate(2)" fill="#000" fill-rule="nonzero"><path d="M56.798 39.115c-.36-.845-1.197-1.449-2.155-1.69-.36-1.57-.838-2.294-.838-2.415.12-.241.359-.362.359-.483 1.437-1.69.479-4.225-1.915-4.829-1.317-1.328-2.515-1.931-3.592-2.414-.958-.483-.599-.242-1.437-.725-.24-1.207-.359-3.863-.718-5.794-.36-1.69-1.078-3.019-2.035-3.743-.48-.966-.958-1.81-1.676-2.535 3.352-5.07 4.19-10.14 1.795-12.797C43.51.483 41.953 0 40.037 0c-2.754 0-5.986 1.087-9.338 3.139 0 0-2.155-1.811-2.275-1.811C19.086-6.036-7.373 26.68 1.966 33.803l2.394 1.81C2.804 39.84 4.96 44.91 9.388 46.48c.958.362 2.036.483 3.113.483 0 0 7.064 13.038 22.029 13.038C51.77 60 56.2 42.978 56.2 42.857c-.12.12 1.316-2.052.598-3.742zM2.564 31.63C.77 28.37 4.001 21.85 6.395 17.988 12.142 8.692 21.84 1.328 26.27 2.414l1.197-.482s3.233 2.776 3.352 2.776C33.093 3.38 35.966 1.932 38.6 1.69c-1.676.362-3.591 1.207-5.986 2.656 0 0-5.627 3.863-8.979 7.244-1.796 1.81-9.218 10.865-9.218 10.744 1.317-2.535 2.274-3.863 4.43-6.52 1.197-1.569 2.514-3.017 3.83-4.466.599-.604 1.198-1.207 1.916-1.81.479-.363.838-.846 1.317-1.208.24-.12.36-.362.599-.483l-4.31-3.622.239 1.57 3.113 2.776s-2.754 1.932-4.19 3.14c-5.627 4.828-11.015 12.192-13.05 19.315h.12c-.958.604-2.036 1.449-2.874 2.656-.359.12-2.634-1.449-2.993-2.052zm9.219 13.4c-3.352 0-5.986-2.897-5.986-6.398s2.753-6.399 5.986-6.399c.838 0 1.676.242 2.394.483 0 0 1.317.604 1.676 3.743.36-.966.599-1.811.599-1.811.479 1.328.599 2.777.599 4.105.359-.483.718-1.328.718-1.328.718 4.104-2.155 7.605-5.986 7.605zm7.423-22.575s2.633-4.95 8.26-8.33c-.479-.121-1.436.12-1.676.12 1.078-.845 2.993-1.448 4.31-1.81-.359-.242-1.317-.363-1.796-.363h-.24c1.198-.724 3.593-1.086 5.628-.724-.24-.362-.838-.604-1.317-.724h-.24.12c1.317-.242 2.754 0 3.95.483-.119-.363-.478-.725-.717-.966l-.12-.12c1.197.24 2.394.844 3.352 1.448a3.668 3.668 0 0 0-.599-.845c1.198.362 2.515 1.207 3.113 2.414v.121c-2.275-1.69-8.74-1.207-15.204 3.018-2.874 1.932-5.148 3.984-6.824 6.278zm35.197 19.678c-.12.12-.838 4.587-5.626 8.33-5.867 4.708-13.649 4.225-16.642 1.57-1.556-1.45-2.274-3.623-2.274-3.623s-.12 1.208-.24 1.69c-1.197-2.052-1.077-4.466-1.077-4.466s-.599 1.207-.958 1.81c-.838-2.293-.479-4.587-.479-4.587l-.718 1.087s-.36-2.536.479-4.588c.838-2.294 2.514-3.863 2.873-4.104-1.197-.363-2.634-1.57-2.634-1.57h.958s-2.514-1.81-2.993-4.587c.359.482 1.077.965 1.077.965-.24-.724-.359-2.293-.12-3.984.48-3.018 2.994-5.07 5.747-5.07 2.993 0 5.029.604 7.543-1.69.479-.483.957-.966 1.676-1.087.12 0 .24-.12.718-.12.36 0 .838.12 1.197.362 1.317.845 1.676 3.018 1.796 4.587.599 5.795.36 4.83 2.634 6.037 1.077.603 2.394 1.086 3.831 2.656 1.197 0 1.796.965 1.317 1.69-4.07 4.829-9.697 7.122-15.923 7.364h-.838c-2.514.12-3.352 3.38-1.796 5.312.958 1.207 2.993 1.69 4.55 1.69 6.824.12 13.768-4.708 14.965-7.485l.12-.242c-.24.363-6.944 6.64-15.085 6.399 0 0-.838 0-1.676-.242-1.078-.241-1.916-.724-2.275-1.81.718.12 1.556.241 2.514.241 5.866 0 10.057-2.656 9.697-2.777h-.12c-.718.121-7.781 2.898-12.21 1.449 0-.12 0-.241.119-.362.359-1.328 1.077-1.207 2.275-1.207 4.07-.121 7.302-1.208 9.817-2.294 2.633-1.207 4.669-2.898 5.387-3.743.958 1.57.958 3.622.958 3.622s.359-.12.838-.12c1.437.12 1.676 1.448.598 2.897z"/><path d="m25.25 4.8.7.2-.6-2-.3 1zM30 5.286 29 4l.364 2c.181-.286.363-.429.636-.714zM42.222 26.669c.667 0 1.222.11 1.778.331 0-1.545-.889-3.2-1.556-2.98-.444.11-.444.773-.444 1.214 0 .552 0 .993.222 1.435zM28 7.538 25 7l1.957 1c.39-.154.652-.308 1.043-.462zM34.939 29.5c.663.25 1.061.375 1.061.25 0 0 0-.25-.133-.375-.398-.5-1.06-1-1.724-1.125-1.46-.5-3.184-.25-4.378.75-.663.5-.929 1-.663 1 .132 0 .53-.125 1.061-.25 2.123-.875 3.184-.875 4.776-.25zM35.515 31.581h.476c.095-.19-.572-.663-1.62-.569-.095 0-.19.095-.38.095h-.096c-.19.095-.477.19-.667.38-.19.19-.286.379-.19.474.095.095.19 0 .476-.095.857-.285 1.429-.285 2-.285zM13.15 36.562c.365.527.243.791.365.923 0 0 .12.132.242 0 .243-.132.243-.396.243-.66 0-.527-.243-1.187-.607-1.583-.485-.528-1.092-1.055-1.942-1.187-.728-.132-1.456 0-1.577.132-.122 0-.243 0-.364.132-1.942.791-2.792 2.902-2.428 4.882a5.09 5.09 0 0 0 .607 1.45c.364.529.85.397.607 0 0-.131-.243-.659-.364-1.45 0-.924.121-1.848.728-2.64.364-.527.85-.791.97-.791.122 0 .122-.132.244-.132h.121c.243-.132.121 0 .364-.132 1.456-.264 2.427.396 2.791 1.056z"/><path d="M13.28 38.039c-.104-.104-.21-.208-.21-.312 0-.208 0-.311.21-.415.106-.104.212-.104.212-.208s-.422-.208-.844.104c-.316.311-.316.935.106 1.35.527.52 1.265.624 1.37 1.247v.623c-.105.623-.738 1.247-1.792 1.039h-.316c-.105.104.316.623 1.16.52 1.16 0 2.002-1.143 1.792-2.39-.106-1.039-1.265-1.247-1.687-1.558z"/><circle transform="rotate(-81.136 43.66 29.98)" cx="43.66" cy="29.981" r="1"/><circle transform="rotate(-61.277 40.817 30.927)" cx="40.817" cy="30.927" r="1"/></g></svg>
